X: 41261
T: Tuar Na Fola, The
R: reel
M: 4/4
K: Ddorian
DC|A,DDF EDDF|EDD^C D2 CD|A,DDF E2DF|EGDE CA,G,C|
A,G,A,C DEFD|GFDE CDEG|cBce gecd|edd^c d=cAG|
EDDA FDDF|EDD^C DECD|A,DDF EEED|EG,DG, CA,G,C|
A,G,A,C DEFD|GEDE CDEG|cBce gecd|edd^c d2 ce||
defg afde|fffe dcAB|cccG AcGA|cdeg gece
defg afde|fdde dcAB|cBce gecd|edd^c d2 ce|
defg afde|fAAc BGBd|cBcG AcGE|CDEG cde^c|
defg afde|fed^c dcAB|cBce gecd|edd^c d2 z2||

